X:1
T:Title
%%score { ( 1 3 4 ) | ( 2 5 ) }
L:1/8
M:4/4
K:C
V:1 treble nm="Grand Piano"
V:3 treble 
V:4 treble 
V:2 bass 
V:5 bass 
V:1
 z4 z2[Q:1/4=100] [CE][DF] | [EG]2 [EG]>[FA] [EG]2 [Ec][Fd] | [Ge]2 [Ge]>[Fd] [Ec]2 [Ec][GB] | %3
 [FA]2 [FA]>[GB] [Ac]2 [Fc]2 | [EG]6 [CE][DF] | [EG]2 [EG]>[FA] [EG]2 [Ec][Fd] | %6
 [Ge]2 [Ge]>[Fd] [Ec]2 [Gc][Gc] | d2 d2 B2 d2 | [Ec]6 z2 | A4 AB c2 | [EG]4 [CE][EG][EG]A | %11
 [EG][Ec][Gc][Gd] [Ge]2 [^Fc]>[Fe] | d6[K:bass] z2 | [Ge]2 [Ge]>[Fd] [Ec][Ec][Ec][GB] | %14
 [FA]2 [Fc]2 [EG]3 [FA] | [EG][EG][Gc]d e2 d2 |[M:3/4] [Ec]6 |] %17
V:2
 z4 z2 [C,G,][C,G,] | [C,C]2 [C,C]>[C,C] [C,C]2 [C,G,][C,G,] | %2
 [C,C]2 [C,C]>[C,G,] [C,G,]2 [C,G,][E,C] | [F,C]2 [F,C]>[F,C] [F,C]2 [F,A,]2 | %4
 [C,C]6 [C,G,][C,G,] | [C,C]2 [C,C]>[C,C] [C,C]2 [C,G,][C,G,] | %6
 [C,C]2 [C,C]>[C,G,] [C,G,]2 [E,C][E,C] | [F,A,F]2 [F,DF]2 [G,DF]2 [G,B,F]2 | [C,C]6 z2 | %9
 [F,A,F]4 [F,CF][F,B,F] [F,A,F]2 | [C,C]4 [C,G,][C,C][C,C][CF] | %11
 [C,C][C,G,][E,G,][D,B,] [C,C]2 [D,A,]>[D,C] | [B,G]6 z2 | %13
 [C,C]2 [C,C]>[C,C] [C,G,][C,G,][C,G,][E,G,] | [F,C]2 [F,A,]2 [C,C]3 [C,C] | %15
 [C,C][C,C][E,C][K:treble][G,B,G] [CG]2 [G,B,F]2 |[M:3/4][K:bass] [C,C]6 |] %17
V:3
 x8 | x8 | x8 | x8 | x8 | x8 | x8 | x8 | x8 | x8 | x8 | x8 | z2[K:bass] G,2 G,2 z2 | x8 | x8 | x8 | %16
[M:3/4] x6 |] %17
V:4
 x8 | x8 | x8 | x8 | x8 | x8 | x8 | x8 | x8 | x8 | x8 | x8 | z2[K:bass] z A, z F,E,D, | x8 | x8 | %15
 x8 |[M:3/4] x6 |] %17
V:5
 x8 | x8 | x8 | x8 | x8 | x8 | x8 | x8 | x8 | x8 | x8 | x8 | G,2 z2 z4 | x8 | x8 | %15
 x3[K:treble] x5 |[M:3/4][K:bass] x6 |] %17

